X:320
T:Timour the Tarter
T:Peter Street
R:Reel
O:Scotland, Ireland
B:O'Neill's 1325
B:Krassen O'Neill's
B:NE Fiddlers
B:Kerr's First p18
B:Skye collection p6
S:My arrangement from various sources, essentially the Scottish version
S:But all essentially the same- O'Neill's has an interesting variation
S:in the A part...
Z:Transcription, minor arr., chords:Mike Long
M:C|
L:1/8
K:A
"A"A2(3(cBA) eA (3(cBA)|"A"eAaA "D"gAfA|"A"A2(3(cBA) eA (3(cBA)|"E"BEdE cEBE|\
"A"A2(3(cBA) eA (3(cBA)|
"A"eAaA "D"gAfA|"A"efec "(D)"eaec|"E"BABc "A"A2GF|]\
"E"E2(3(GFE) BE (3(GFE)|BEdE cEBE|
"A"A2(3(cBA) eA (3(cBA)|"A"eAaA "D"gAfA|\
"A"e^dec "D"agaf|"A"e^dec "D"agaf|"A"ecag "D"fedc|"E"BAGF EFGE|]
